packages/tokens/icons/clip/size32Px.svg

<svg viewBox="0 0 32 32" fill="none" xmlns="http://www.w3.org/2000/svg" width="1em" height="1em"><path d="M16.7988 7.70735L5.88906 18.6913C3.7668 20.828 3.77265 24.2788 5.90214 26.4082V26.4082C8.04103 28.5471 11.5104 28.5422 13.6432 26.3973L27.4057 12.5564C28.9678 10.9943 28.9759 8.46985 27.4239 6.91783C25.8719 5.36581 23.3474 5.37398 21.7853 6.93607L13.8556 14.8658L7.9967 20.7248C7.0204 21.7011 7.0153 23.2789 7.9853 24.2489C8.9553 25.2189 10.5331 25.2138 11.5094 24.2375L22.4696 13.2773" stroke="currentColor" stroke-linecap="round"/></svg>

<svg xmlns="http://www.w3.org/2000/svg" fill="none" viewBox="0 0 32 32" width="1em" height="1em"><path stroke="currentColor" stroke-linecap="round" d="M16.799 7.707 5.889 18.691a5.466 5.466 0 0 0 .013 7.717v0a5.466 5.466 0 0 0 7.741-.01l13.763-13.842c1.562-1.562 1.57-4.086.018-5.638-1.552-1.552-4.077-1.544-5.639.018l-7.93 7.93-5.858 5.859a2.492 2.492 0 0 0-.012 3.524c.97.97 2.548.965 3.524-.011l10.96-10.96"/></svg>
